X: 6353
T: Casey's Favourite
R: strathspey
M: 4/4
K: Gmajor
|:d>c|B>G (3GGA B>c d2|e>Bd>B (3ABA d>c|B>GG>A (3Bcd G>d|(3ege d>B G2:|
(3fga|b2 a>f g>f (3fed|e>a-a>^g a>d=g>a|b>ga>f g>fe>d|e>^de>f g>=d (3fga|
b>ga>g b>g (3agf|e2 a>^g a2 =g>a|b2 (3c’ba g>ed>G|e>^de>f g2||

